X:1
C:Trad/Arr as Jig - The Animals
S:Northumbrian Minstrelsy
M:6/8
K:C
AAc ecA | CGc eAG | DAd ^fdA  | FAc fcA  | 
AAc ecA | CGc eAG | E^GB eB^G | E^GB eB^G| 